resources/icons/20px/new-drawing.svg

<?xml version="1.0" encoding="UTF-8"?>
<svg viewBox="0 0 20 20" version="1.1" xmlns="http://www.w3.org/2000/svg" xmlns:xlink="http://www.w3.org/1999/xlink">
    <title>New drawing</title>
    <g stroke="none" stroke-width="1" fill="none" fill-rule="evenodd">
        <g fill="#000000" fill-rule="nonzero">
            <path d="M18.7,13.7 C19.2,13.7 19.7,14.1 19.7,14.7 C19.7,14.9571429 19.6265306,15.1408163 19.4795918,15.3139942 L19.4,15.4 L15.4,19.4 C15.2,19.6 15,19.7 14.7,19.7 C14.1,19.7 13.7,19.2 13.7,18.7 C13.7,18.4428571 13.7734694,18.2591837 13.9204082,18.0860058 L14,18 L18,14 C18.2,13.8 18.4,13.7 18.7,13.7 Z M1.8,2.30926389e-14 L10.1776952,2.98204557 C10.0627075,3.30000395 10,3.64279784 10,4 C10,5.6545695 11.3454305,7 13,7 C13,8.6545695 14.3454305,10 16,10 C16.3050613,10 16.5996136,9.95426325 16.8771619,9.86928487 L17.6,12.4 L17.6488,12.46 C17.7,12.54 17.7,12.62 17.7,12.7 C17.7,12.8666667 17.6305556,13.1027778 17.4916667,13.2925926 L17.4,13.4 L13.4,17.4 C13.2,17.6 13,17.7 12.7,17.7 C12.625,17.7 12.55,17.64375 12.475,17.615625 L12.4,17.6 L5.4,15.6 L5.28789063,15.5578125 C5.06523438,15.4640625 4.85664063,15.3140625 4.74648438,15.1078125 L4.7,15 L2.30926389e-14,1.8 L0.5,1.2 L7,7.7 C6.8,8 6.7,8.3 6.7,8.7 C6.7,9.8 7.6,10.7 8.7,10.7 C9.8,10.7 10.7,9.8 10.7,8.7 C10.7,7.6 9.8,6.7 8.7,6.7 C8.35714286,6.7 8.0877551,6.77346939 7.82886297,6.92040816 L7.7,7 L1.2,0.5 L1.8,2.30926389e-14 Z M16,0 C16.55,0 17,0.45 17,1 L17,1 L17,3 L19,3 C19.55,3 20,3.45 20,4 C20,4.55 19.55,5 19,5 L19,5 L17,5 L17,7 C17,7.43214286 16.7221939,7.80255102 16.336352,7.94145408 L16.3265857,7.94491242 C16.274886,7.96291616 16.2212902,7.97677674 16.1662009,7.98609143 C16.1118921,7.9952557 16.0564732,8 16,8 L16,8 C15.45,8 15,7.55 15,7 L15,5 L13,5 L13,5 C12.45,5 12,4.55 12,4 L12.0067602,3.88380102 C12.0647959,3.3880102 12.4892857,3 13,3 L13,3 L15,3 L15,1 C15,0.45 15.45,0 16,0 Z"></path>
        </g>
    </g>
</svg>

<svg xmlns="http://www.w3.org/2000/svg" viewBox="0 0 20 20">
  <path d="M18.7 13.7c.5 0 1 .4 1 1 0 .257-.073.44-.22.614l-.08.086-4 4c-.2.2-.4.3-.7.3-.6 0-1-.5-1-1 0-.257.073-.44.22-.614L14 18l4-4c.2-.2.4-.3.7-.3M1.8 0l8.378 2.982A3.003 3.003 0 0 0 13 7a3.003 3.003 0 0 0 3.877 2.87l.723 2.53.049.06a.4.4 0 0 1 .051.24c0 .167-.07.403-.208.593l-.092.107-4 4c-.2.2-.4.3-.7.3-.075 0-.15-.056-.225-.084L12.4 17.6l-7-2-.112-.042c-.223-.094-.431-.244-.542-.45L4.7 15 0 1.8l.5-.6L7 7.7c-.2.3-.3.6-.3 1 0 1.1.9 2 2 2s2-.9 2-2-.9-2-2-2a1.7 1.7 0 0 0-.871.22L7.7 7 1.2.5zM16 0c.55 0 1 .45 1 1v2h2c.55 0 1 .45 1 1s-.45 1-1 1h-2v2c0 .432-.278.803-.664.941l-.01.004A1 1 0 0 1 16 8c-.55 0-1-.45-1-1V5h-2c-.55 0-1-.45-1-1l.007-.116C12.065 3.388 12.489 3 13 3h2V1c0-.55.45-1 1-1"/>
</svg>
